X: 38148
T: Sporting Nell
R: reel
M: 4/4
K: Ddorian
|:AD~D2 A2dc|AD~D2 EDEG|AD~D2 A2dc|1 AcGE EDEG:|2 AcGE EDD2||
c2ec gcec|c2ec dBGB|c2ec gcec|AcGE EDD2|
c2ec gcec|c2ec dBG2|f3d ~e3d|cAGc Addc||

